packages/foundations/assets/icons/functional/images/transportation/train_24.svg

<svg width="24" height="24" viewBox="0 0 24 24" fill="none" xmlns="http://www.w3.org/2000/svg">
<g clip-path="url(#clip0_187_960)">
<path fill-rule="evenodd" clip-rule="evenodd" d="M13.0462 2C15.2174 2 16.4745 2.75606 17.4459 4.04074C18.3361 5.21799 18.8605 6.6247 18.9588 8.08853L19.0312 10.7016C19.0704 12.2555 18.9212 13.8077 18.5873 15.3249C18.3478 16.3697 18.1606 17.1217 18.0257 17.5809C17.8234 18.2697 17.6015 18.8532 17.0423 19.6258C16.6544 20.1617 16.2635 20.4969 15.7398 20.7314C15.81 20.8537 15.8503 20.9972 15.8503 21.15C15.8503 21.5833 15.4993 22 15.0003 22H9.00031C8.53086 22 8.15031 21.6194 8.15031 21.15C8.15031 20.9925 8.19312 20.8451 8.26775 20.7186C7.63311 20.428 7.40151 20.1863 6.9784 19.6318C6.55528 19.0774 6.21619 18.4024 6.05203 17.854C5.88787 17.3055 5.92804 17.4073 5.54791 15.9079C5.16778 14.4084 4.97174 12.8696 4.96354 11.3249C4.95807 10.2951 4.97959 9.32114 5.0281 8.40309C5.06769 6.82689 5.60149 5.30209 6.55528 4.04074C7.48255 2.81446 8.74004 2 11.0005 2.00466L13.0462 2ZM16.4525 16.869L15.4599 17.5285C14.8255 17.9364 13.6704 18.1199 11.9974 18.1199C10.3244 18.1199 9.21748 17.9636 8.54076 17.5285L7.54554 16.869C7.64026 17.3087 7.79856 17.7257 8.02042 18.1199C8.35321 18.7112 8.77758 19.3083 9.5724 19.2915C10.3672 19.2747 13.74 19.3 14.4811 19.3C15.2222 19.3 15.5789 18.8172 15.9413 18.199C16.1829 17.7869 16.3533 17.3436 16.4525 16.869ZM11.0005 3.7C9.48086 3.7 8.63166 4.11337 7.91126 5.06608C7.22862 5.96885 6.82377 7.04475 6.74141 8.16489L6.66874 10.7881C6.63832 11.9992 6.73485 13.2092 6.95605 14.3983L8.47497 15.4461L9.4602 16.0986C9.6124 16.1965 10.6475 16.4199 11.9974 16.4199C13.3473 16.4199 14.2351 16.2949 14.5407 16.0985L15.9902 15.13L17.0389 14.4036C17.2323 13.372 17.3318 12.3252 17.3371 11.2755L17.2738 8.44586C17.2431 7.22531 16.8295 6.04412 16.0899 5.06608C15.4025 4.15699 14.6312 3.7 13.0462 3.70419L11.0005 3.7ZM14.8804 12.7397C15.268 12.9335 15.4429 13.3835 15.3023 13.7818L14.7606 14.8801C14.5506 15.3 14.0401 15.4702 13.6202 15.2603C13.2326 15.0665 13.0578 14.6165 13.1983 14.2182L13.74 13.1199C13.95 12.7 14.4606 12.5298 14.8804 12.7397ZM10.207 13.0275L10.7606 14.1199C10.9705 14.5398 10.8003 15.0503 10.3804 15.2603C9.99285 15.4541 9.528 15.3239 9.29365 14.9725L8.74004 13.8801C8.5301 13.4602 8.70029 12.9497 9.12017 12.7397C9.50776 12.5459 9.97262 12.6761 10.207 13.0275ZM12.0004 5C12.8029 5 13.4922 5.09272 14.0683 5.27817C15.2852 5.66988 16.0105 6.9165 15.7497 8.16798L15.4749 9.48642C15.3061 10.2963 14.6561 10.9187 13.8396 11.0522C13.0977 11.1841 12.4846 11.25 12.0003 11.25C11.516 11.25 10.9029 11.1841 10.1611 11.0522C9.34461 10.9187 8.69457 10.2964 8.52576 9.48647L8.25095 8.16806C7.9901 6.91658 8.71541 5.66992 9.93229 5.2782C10.5084 5.09273 11.1978 5 12.0004 5ZM12.0004 6.7C11.3641 6.7 10.8475 6.76948 10.4532 6.89642C10.0992 7.01037 9.87521 7.35043 9.90012 7.71219C10.0313 8.38375 10.1182 8.80658 10.1611 8.9807C10.2254 9.24187 10.2606 9.34584 10.4353 9.37444C10.61 9.40303 11.4732 9.54651 12.0003 9.55C12.5274 9.55349 13.1149 9.43744 13.454 9.39442C13.7931 9.35141 13.7931 9.16884 13.8396 8.9807C13.8706 8.85527 13.9525 8.46875 14.0855 7.82114C14.1689 7.42066 13.9368 7.02174 13.5474 6.8964C13.1531 6.76948 12.6366 6.7 12.0004 6.7Z" fill="#1A1C1F"/>
</g>
<defs>
<clipPath id="clip0_187_960">
<rect width="24" height="24" fill="white"/>
</clipPath>
</defs>
</svg>

<svg xmlns="http://www.w3.org/2000/svg" width="24" height="24" fill="none"><g clip-path="url(#a)"><path fill="#1A1C1F" fill-rule="evenodd" d="M13.046 2c2.171 0 3.428.756 4.4 2.04a7.55 7.55 0 0 1 1.513 4.049l.072 2.613a19.3 19.3 0 0 1-.444 4.623 43 43 0 0 1-.561 2.256c-.203.689-.424 1.272-.984 2.045-.388.536-.779.87-1.302 1.105a.84.84 0 0 1 .11.419c0 .433-.35.85-.85.85H9a.85.85 0 0 1-.732-1.281c-.635-.291-.866-.533-1.29-1.087a6 6 0 0 1-.926-1.778c-.164-.549-.124-.447-.504-1.946-.38-1.5-.576-3.038-.584-4.583q-.008-1.545.064-2.922a7.55 7.55 0 0 1 1.527-4.362C7.483 2.814 8.74 2 11.001 2.005zm3.407 14.869-.993.66c-.635.407-1.79.59-3.463.59s-2.78-.155-3.456-.59l-.995-.66q.142.66.474 1.25c.333.592.758 1.19 1.552 1.172.795-.016 4.168.009 4.91.009.74 0 1.097-.483 1.46-1.101q.36-.618.51-1.33M11 3.7c-1.52 0-2.37.413-3.09 1.366a5.85 5.85 0 0 0-1.17 3.099l-.072 2.623c-.03 1.211.066 2.421.287 3.61l1.519 1.048.985.653c.152.098 1.188.32 2.537.32 1.35 0 2.238-.124 2.544-.32l1.45-.969 1.048-.726c.193-1.032.293-2.079.298-3.129l-.063-2.83a5.85 5.85 0 0 0-1.184-3.379c-.687-.909-1.459-1.366-3.044-1.362zm3.88 9.04a.85.85 0 0 1 .421 1.042l-.541 1.098a.85.85 0 0 1-1.563-.662l.542-1.098a.85.85 0 0 1 1.14-.38m-4.674.287.554 1.093a.85.85 0 0 1-1.467.853L8.74 13.88a.85.85 0 0 1 1.467-.853M12 5q1.204 0 2.068.278a2.5 2.5 0 0 1 1.682 2.89l-.275 1.318a2 2 0 0 1-1.635 1.566q-1.113.198-1.84.198-.726 0-1.839-.198a2 2 0 0 1-1.635-1.566L8.25 8.168a2.5 2.5 0 0 1 1.681-2.89Q10.796 5 12 5m0 1.7c-.636 0-1.152.07-1.547.196a.8.8 0 0 0-.553.816q.197 1.008.261 1.269c.064.26.1.365.274.393s1.038.173 1.565.176 1.115-.113 1.454-.156c.34-.043.34-.225.386-.413q.046-.188.245-1.16a.8.8 0 0 0-.538-.925C13.153 6.77 12.637 6.7 12 6.7" clip-rule="evenodd"/></g><defs><clipPath id="a"><path fill="#fff" d="M0 0h24v24H0z"/></clipPath></defs></svg>
